fa/svgs/regular/face-dizzy.svg

<svg xmlns="http://www.w3.org/2000/svg" viewBox="0 0 512 512"><!--! Font Awesome Free 6.1.1 by @fontawesome - https://fontawesome.com License - https://fontawesome.com/license/free (Icons: CC BY 4.0, Fonts: SIL OFL 1.1, Code: MIT License) Copyright 2022 Fonticons, Inc.--><path d="M192 352c0-35.3 28.7-64 64-64s64 28.7 64 64-28.7 64-64 64-64-28.7-64-64zm-89-217c9.4-9.3 24.6-9.3 33.1 0l23.9 23.1 23-23.1c9.4-9.3 24.6-9.3 33.1 0 10.2 9.4 10.2 24.6 0 33.1L193.9 192l22.2 23c10.2 9.4 10.2 24.6 0 33.1-8.5 10.2-23.7 10.2-33.1 0l-23-22.2-23.9 22.2c-8.5 10.2-23.7 10.2-33.1 0-9.34-8.5-9.34-23.7 0-33.1l23.1-23-23.1-23.9c-9.34-8.5-9.34-23.7 0-33.1zm192 0c9.4-9.3 24.6-9.3 33.1 0l23.9 23.1 23-23.1c9.4-9.3 24.6-9.3 33.1 0 10.2 9.4 10.2 24.6 0 33.1L385.9 192l22.2 23c10.2 9.4 10.2 24.6 0 33.1-8.5 10.2-23.7 10.2-33.1 0l-23-22.2-23.9 22.2c-8.5 10.2-23.7 10.2-33.1 0-9.3-8.5-9.3-23.7 0-33.1l23.1-23-23.1-23.9c-9.3-8.5-9.3-23.7 0-33.1zm217 121c0 141.4-114.6 256-256 256S0 397.4 0 256 114.6 0 256 0s256 114.6 256 256zM256 48C141.1 48 48 141.1 48 256s93.1 208 208 208 208-93.1 208-208S370.9 48 256 48z"/></svg>

<svg xmlns="http://www.w3.org/2000/svg" viewBox="0 0 512 512"><!--! Font Awesome Free 6.2.1 by @fontawesome - https://fontawesome.com License - https://fontawesome.com/license/free (Icons: CC BY 4.0, Fonts: SIL OFL 1.1, Code: MIT License) Copyright 2022 Fonticons, Inc. --><path d="M192 352C192 316.7 220.7 288 256 288C291.3 288 320 316.7 320 352C320 387.3 291.3 416 256 416C220.7 416 192 387.3 192 352zM103 135C112.4 125.7 127.6 125.7 136.1 135L160 158.1L183 135C192.4 125.7 207.6 125.7 216.1 135C226.3 144.4 226.3 159.6 216.1 168.1L193.9 192L216.1 215C226.3 224.4 226.3 239.6 216.1 248.1C207.6 258.3 192.4 258.3 183 248.1L160 225.9L136.1 248.1C127.6 258.3 112.4 258.3 103 248.1C93.66 239.6 93.66 224.4 103 215L126.1 192L103 168.1C93.66 159.6 93.66 144.4 103 135V135zM295 135C304.4 125.7 319.6 125.7 328.1 135L352 158.1L375 135C384.4 125.7 399.6 125.7 408.1 135C418.3 144.4 418.3 159.6 408.1 168.1L385.9 192L408.1 215C418.3 224.4 418.3 239.6 408.1 248.1C399.6 258.3 384.4 258.3 375 248.1L352 225.9L328.1 248.1C319.6 258.3 304.4 258.3 295 248.1C285.7 239.6 285.7 224.4 295 215L318.1 192L295 168.1C285.7 159.6 285.7 144.4 295 135V135zM512 256C512 397.4 397.4 512 256 512C114.6 512 0 397.4 0 256C0 114.6 114.6 0 256 0C397.4 0 512 114.6 512 256zM256 48C141.1 48 48 141.1 48 256C48 370.9 141.1 464 256 464C370.9 464 464 370.9 464 256C464 141.1 370.9 48 256 48z"/></svg>
